static/assets/images/icons/apollo.svg

<svg width="257" height="256" viewBox="0 0 257 256" fill="none" xmlns="http://www.w3.org/2000/svg">
<path d="M68.2567 181.938H41.8164L120.212 32.7168H137.717L214.433 181.938H188.601L128.441 69.87L68.2567 181.938Z" fill="black"/>
<path d="M92.1406 181.987L163.281 181.89L127.711 246.652L92.1406 181.987Z" fill="black"/>
<path d="M128.125 124.967C134.902 124.967 140.395 119.473 140.395 112.696C140.395 105.919 134.902 100.425 128.125 100.425C121.348 100.425 115.854 105.919 115.854 112.696C115.854 119.473 121.348 124.967 128.125 124.967Z" fill="black"/>
</svg>

<svg xmlns="http://www.w3.org/2000/svg" viewBox="0 0 257 256"><path d="M68.257 181.938h-26.44l78.395-149.221h17.505l76.716 149.221h-25.832L128.441 69.87z"/><path d="m92.14 181.987 71.141-.097-35.57 64.762zm35.985-57.02c6.777 0 12.27-5.494 12.27-12.271s-5.493-12.271-12.27-12.271-12.271 5.494-12.271 12.271 5.494 12.271 12.271 12.271"/></svg>
